X: 144
T: the Mist-Covered Mountain
N: page 47
R: waltz
D: De Danaan ________
M: 3/4
L: 1/8
K: ADor
"Am" A6 | A6 |"Em"e3d e2|e3d B2|\
"G"G6|G4 A2|"Em"B3 AB2|"Am"A3 G E2|
c6|"G" d6|"Em"e3f g2|B3A G2|\
"Am"A3Be2|"G"d2zcB2|"Am"A6|A6::
"Am"e6|e6|"G"d3e g2|"Em"e3d B2|\
"G"G4 G2|G4 B2|"Am"e4 e2|"G"d3c B2|
"Am"A6|c6|"G"d3e g2|"Em"B3A G2|\
"Am"A3Be2|"G"d4z cB2|"Am"A6|A6:|
